src/fileIcons/FileIconAvi/FileIconAvi_size_s.svg

<svg viewBox="0 0 21 28" xmlns="http://www.w3.org/2000/svg">
  <path
    d="M19.6 0H1.4C0.626801 0 0 0.626801 0 1.4V26.6C0 27.3732 0.626801 28 1.4 28H19.6C20.3732 28 21 27.3732 21 26.6V1.4C21 0.626801 20.3732 0 19.6 0Z"
  />
  <path
    opacity="0.6"
    fill-rule="evenodd"
    clip-rule="evenodd"
    d="M17 12V25H4V12H17ZM14 24H16V22H14V24ZM14 21H16V19H14V21ZM13 19V24.0556H8V19H13ZM13 18H8V12.9444H13V18ZM14 18H16V16H14V18ZM14 15H16V13H14V15ZM7 16V18H5V16H7ZM5 21V19H7V21H5ZM5 22V24H7V22H5ZM7 15V13H5V15H7Z"
    fill="#fff"
  />
  <path d="M15.5 3V2H14.5V3H15.5Z" fill="#fff" />
  <path d="M13.5 4V5H14.5V8H13.5V9H16.5V8H15.5V4H13.5Z" fill="#fff" />
  <path
    fill-rule="evenodd"
    clip-rule="evenodd"
    d="M8.45 9C8.36333 9 8.26667 8.97333 8.16 8.92C8.06 8.86667 7.97333 8.79333 7.9 8.7C7.74667 8.9 7.54333 9 7.29 9H5.95C5.44333 9 5.07333 8.9 4.84 8.7C4.61333 8.49333 4.5 8.14333 4.5 7.65V7.55C4.5 6.51667 4.98667 6 5.96 6H7.5V5.65C7.5 5.44333 7.43667 5.28333 7.31 5.17C7.18333 5.05667 6.99667 5 6.75 5H5V4H6.8C7.38 4 7.80667 4.12667 8.08 4.38C8.36 4.63333 8.5 5.04 8.5 5.6V8C8.5 8.1 8.53667 8.17667 8.61 8.23C8.69 8.27667 8.82 8.3 9 8.3V9H8.45ZM7.04 8C7.24 8 7.36667 7.95333 7.42 7.86C7.47333 7.76667 7.5 7.64667 7.5 7.5V7H6.1C5.92667 7 5.78333 7.05667 5.67 7.17C5.56685 7.27315 5.51064 7.40115 5.50137 7.55401C5.50901 7.69989 5.54856 7.80856 5.62 7.88C5.7 7.96 5.82667 8 6 8H7.04Z"
    fill="#fff"
  />
  <path d="M10.5 4H9.5V7L10.5 9H11.5L12.5 7V4H11.5V7H10.5V4Z" fill="#fff" />
</svg>

<svg viewBox="0 0 21 28" xmlns="http://www.w3.org/2000/svg">
  <path
    d="M19.6 0H1.4A1.4 1.4 0 000 1.4v25.2A1.4 1.4 0 001.4 28h18.2a1.4 1.4 0 001.4-1.4V1.4A1.4 1.4 0 0019.6 0z"
  />
  <path
    fill="#fff"
    fill-rule="evenodd"
    d="M17 12v13H4V12h13zm-3 12h2v-2h-2v2zm0-3h2v-2h-2v2zm-1-2v5.056H8V19h5zm0-1H8v-5.056h5V18zm1 0h2v-2h-2v2zm0-3h2v-2h-2v2zm-7 1v2H5v-2h2zm-2 5v-2h2v2H5zm0 1v2h2v-2H5zm2-7v-2H5v2h2z"
    clip-rule="evenodd"
    opacity=".7"
  />
  <path fill="#fff" d="M16 3V2h-1v1h1zM14 4v1h1v3h-1v1h3V8h-1V4h-2z" />
  <path
    fill="#fff"
    fill-rule="evenodd"
    d="M8.95 9a.659.659 0 01-.29-.08.818.818 0 01-.26-.22.73.73 0 01-.61.3H6.45c-.507 0-.877-.1-1.11-.3C5.113 8.493 5 8.143 5 7.65v-.1C5 6.517 5.487 6 6.46 6H8v-.35c0-.207-.063-.367-.19-.48-.127-.113-.313-.17-.56-.17H5.5V4h1.8c.58 0 1.007.127 1.28.38.28.253.42.66.42 1.22V8c0 .1.037.177.11.23.08.047.21.07.39.07V9h-.55zM7.54 8c.2 0 .327-.047.38-.14A.72.72 0 008 7.5V7H6.6a.583.583 0 00-.599.554c.008.146.048.255.119.326.08.08.207.12.38.12h1.04z"
    clip-rule="evenodd"
  />
  <path fill="#fff" d="M11 4h-1v3l1 2h1l1-2V4h-1v3h-1V4z" />
</svg>
